svgs/solid/truck-tow.svg

<svg xmlns="http://www.w3.org/2000/svg" viewBox="0 0 640 512"><!--! Font Awesome Pro 6.2.0 by @fontawesome - https://fontawesome.com License - https://fontawesome.com/license (Commercial License) Copyright 2022 Fonticons, Inc. --><path d="M96 0h49.6c9.1 0 17.8 3.9 23.9 10.7L384 252V128c0-17.7 14.3-32 32-32h82.7c17 0 33.3 6.7 45.3 18.7L621.3 192c12 12 18.7 28.3 18.7 45.3V256v32 88c0 22.1-17.9 40-40 40H576c0 53-43 96-96 96s-96-43-96-96H256c0 53-43 96-96 96s-96-43-96-96H48c-26.5 0-48-21.5-48-48V304c0-26.5 21.5-48 48-48H192L96 64V176c0 26.5-21.5 48-48 48s-48-21.5-48-48V160c0-8.8 7.2-16 16-16s16 7.2 16 16v16c0 8.8 7.2 16 16 16s16-7.2 16-16V32C64 14.3 78.3 0 96 0zM576 256V237.3L498.7 160H448v96H576zM208 416c0-26.5-21.5-48-48-48s-48 21.5-48 48s21.5 48 48 48s48-21.5 48-48zm272 48c26.5 0 48-21.5 48-48s-21.5-48-48-48s-48 21.5-48 48s21.5 48 48 48z"/></svg>

<svg xmlns="http://www.w3.org/2000/svg" viewBox="0 0 640 512"><!--! Font Awesome Pro 6.1.2 by @fontawesome - https://fontawesome.com License - https://fontawesome.com/license (Commercial License) Copyright 2022 Fonticons, Inc. --><path d="M96 0H145.6C154.8 0 163.5 3.909 169.5 10.74L384 252V128C384 110.3 398.3 96 416 96H498.7C515.7 96 531.1 102.7 544 114.7L621.3 192C633.3 204 640 220.3 640 237.3V376C640 398.1 622.1 416 600 416H576C576 469 533 512 480 512C426.1 512 384 469 384 416H256C256 469 213 512 160 512C106.1 512 64 469 64 416H48C21.49 416 0 394.5 0 368V304C0 277.5 21.49 256 48 256H192L96 64V176C96 202.5 74.51 224 48 224C21.49 224 0 202.5 0 176V160C0 151.2 7.164 144 16 144C24.84 144 32 151.2 32 160V176C32 184.8 39.16 192 48 192C56.84 192 64 184.8 64 176V32C64 14.33 78.33 0 96 0zM576 256V237.3L498.7 160H448V256H576zM160 368C133.5 368 112 389.5 112 416C112 442.5 133.5 464 160 464C186.5 464 208 442.5 208 416C208 389.5 186.5 368 160 368zM480 464C506.5 464 528 442.5 528 416C528 389.5 506.5 368 480 368C453.5 368 432 389.5 432 416C432 442.5 453.5 464 480 464z"/></svg>
